packages/core/src/svgs/tokens/mono/BOSON.svg

<svg width="24" height="24" viewBox="0 0 24 24" fill="none" xmlns="http://www.w3.org/2000/svg">
<path fill-rule="evenodd" clip-rule="evenodd" d="M2 5.05554H22V18.9445H2V5.05554ZM3.66668 6.7222H20.3334V17.2777H3.66668V6.7222ZM19.2223 16.1667H19.1334C18.4366 16.1646 17.752 15.9831 17.1459 15.6396C16.5396 15.2962 16.0321 14.8022 15.6723 14.2055C15.2834 14.6167 14.5389 15.1833 13.7001 15.1833C12.7167 15.1833 12.0945 14.3277 11.9611 14.011C11.8278 13.7055 11.7 13.3166 11.5612 12.9111C11.1777 11.7834 10.75 10.5222 10.15 10.5222C9.68336 10.5222 9.19445 11.65 8.90001 12.5777C8.77324 13.5777 8.28308 14.496 7.52289 15.1579C6.76271 15.8196 5.78563 16.1787 4.77778 16.1667V14.6388H4.86112C5.20449 14.636 5.54392 14.5653 5.85997 14.4312C6.17602 14.2969 6.46248 14.1015 6.70295 13.8564C6.94343 13.6114 7.1332 13.3211 7.26139 13.0026C7.38958 12.684 7.45368 12.3434 7.45001 12C7.45383 11.6496 7.38707 11.3019 7.25371 10.9778C7.12036 10.6538 6.92312 10.3599 6.67376 10.1136C6.42441 9.86729 6.12803 9.67389 5.8023 9.54452C5.47657 9.41528 5.12815 9.35292 4.77778 9.36109V7.83331H4.86112C5.58619 7.83539 6.29746 8.0318 6.92085 8.40211C7.54424 8.77244 8.05694 9.30315 8.40556 9.93885C8.72224 9.45559 9.32779 8.83888 10.15 8.83888C11.1667 8.83888 11.9056 9.33892 12.1222 9.95L12.3667 10.6722C12.7833 11.9499 13.2889 13.4945 14.0056 13.4945C14.6556 13.4945 14.9334 12.2556 15.1055 11.3611C15.2459 10.3732 15.7412 9.47037 16.4988 8.82108C17.2565 8.17183 18.2245 7.8207 19.2223 7.83331V9.36109H19.1334C18.7905 9.36472 18.4516 9.43589 18.1363 9.57044C17.8209 9.705 17.535 9.90048 17.2951 10.1455C17.0553 10.3905 16.8659 10.6805 16.7381 10.9986C16.6103 11.3168 16.5463 11.6571 16.55 12C16.5462 12.3505 16.613 12.698 16.7464 13.0221C16.8796 13.3462 17.0769 13.6402 17.3262 13.8863C17.5756 14.1326 17.8719 14.3262 18.1977 14.4554C18.5235 14.5846 18.8719 14.6471 19.2223 14.6388V16.1667Z" fill="white"/>
</svg>

<svg xmlns="http://www.w3.org/2000/svg" width="24" height="24" fill="none" viewBox="0 0 24 24">
    <path fill="#fff" fill-rule="evenodd" d="M2 5.056h20v13.889H2zm1.667 1.666h16.666v10.556H3.667zm15.555 9.445h-.089a4.06 4.06 0 0 1-3.46-1.962c-.39.412-1.134.978-1.973.978-.983 0-1.605-.855-1.739-1.172-.133-.305-.261-.694-.4-1.1-.383-1.128-.811-2.389-1.411-2.389-.467 0-.956 1.128-1.25 2.056a4.106 4.106 0 0 1-4.122 3.589v-1.528h.083A2.61 2.61 0 0 0 7.45 12a2.61 2.61 0 0 0-2.672-2.639V7.833h.083A4.06 4.06 0 0 1 8.406 9.94c.316-.483.922-1.1 1.744-1.1 1.017 0 1.756.5 1.972 1.111l.245.722c.416 1.278.922 2.823 1.639 2.823.65 0 .927-1.24 1.1-2.134a4.106 4.106 0 0 1 4.116-3.528v1.528h-.089A2.61 2.61 0 0 0 16.55 12a2.61 2.61 0 0 0 2.672 2.639z" clip-rule="evenodd"/>
</svg>
